X:32
T:The Foggy Dew
C:Traditional
R:Aire
M:4/4
Q:1/4=80
L:1/8
K:D
EF | G2 GA B2 gf | e2 dB A2 GA | BA BG EG FA | G2 G2 G2 EF |
G2 GA B2  gf | e2 dB A2 GA | BA BG EG FA | G2 G2 G2 ef |
g2 gf e2 fg | ag fe d2 B^d | e3 f gf e^d | e6 EF |
G2 GA B2 gf | e2 dB A2 GA | BA BG EG FA | G2 G2 G2 ||

% From O'Niell's Music of Ireland
